X:3040
T: Den bästa Orsavalsen
O: Orsa
S: Utlärd av Jonny Soling
Z: Karin Arén
M: 3/4
L: 1/8
K: Am
 uA2|: vLd3) e vLf2 | fd uLe2 e^c | vdefg vab | v(ag) u(gf)ef |
vLd2 de uLf2 | fd vLe2 (e^c) | vdefg v(ab) | ua4 v(A2 :|:
cB) u(cd) c_B | vA4 u(G2 | FE) vDE FG | vA4 uA2 |
vf2 (fe) d^c | vde (fe) fg | ua2 v(a^g) ab | ua4 v(A2 |  
cB) u(cd) c_B | vA4 u(A2 | Tfe) fa gf | ve3 g fe |
vd^c de fg | va2 (eg) (fe) | (d^c) de v(d2 | d4) uA2 :|
(:musicend:)
(:music:)
